X:1
T:Threes (Dog and Pony)
M:4/4
L:1/8
K:C
 AA AB AG EG| AA Ac A2 z c| ed eg ee ed| ee eg e3 e| ee eg ed cd| ee ec A3 E|\
 AA AB AG EG| AA AG A3 z| cc cd ec AG| cc cd e3 e| ed cde-A cd| ec cB A3 z|\
